Catalina-dark/actions/16/zoom-in-x.svg

<?xml version="1.0" encoding="UTF-8" standalone="no"?>
<svg
   xmlns:dc="http://purl.org/dc/elements/1.1/"
   xmlns:cc="http://creativecommons.org/ns#"
   xmlns:rdf="http://www.w3.org/1999/02/22-rdf-syntax-ns#"
   xmlns:svg="http://www.w3.org/2000/svg"
   xmlns="http://www.w3.org/2000/svg"
   xmlns:sodipodi="http://sodipodi.sourceforge.net/DTD/sodipodi-0.dtd"
   xmlns:inkscape="http://www.inkscape.org/namespaces/inkscape"
   width="16"
   height="16"
   viewBox="0 0 16 16"
   version="1.1"
   id="svg7"
   sodipodi:docname="labplot-zoom-in-x.svg"
   inkscape:version="0.92.4 5da689c313, 2019-01-14">
  <metadata
     id="metadata11">
    <rdf:RDF>
      <cc:Work
         rdf:about="">
        <dc:format>image/svg+xml</dc:format>
        <dc:type
           rdf:resource="http://purl.org/dc/dcmitype/StillImage" />
      </cc:Work>
    </rdf:RDF>
  </metadata>
  <sodipodi:namedview
     pagecolor="#ffffff"
     bordercolor="#666666"
     borderopacity="1"
     objecttolerance="10"
     gridtolerance="10"
     guidetolerance="10"
     inkscape:pageopacity="0"
     inkscape:pageshadow="2"
     inkscape:window-width="640"
     inkscape:window-height="480"
     id="namedview9"
     showgrid="false"
     inkscape:zoom="14.75"
     inkscape:cx="6.8135593"
     inkscape:cy="8"
     inkscape:window-x="0"
     inkscape:window-y="26"
     inkscape:window-maximized="0"
     inkscape:current-layer="svg7" />
  <defs
     id="defs3">
    <style
       id="current-color-scheme"
       type="text/css">
   .ColorScheme-Text { color:#5c616c; } .ColorScheme-Highlight { color:#5294e2; }
  </style>
  </defs>
  <path
     style="fill:#f1f6f8;fill-opacity:0.8509804"
     class="ColorScheme-Text"
     d="M 3.2148438 2 C 2.5449838 2 1.9960938 2.5248 1.9960938 3.1875 L 1.9960938 7 L 3.9960938 7 L 3.9960938 4 L 6.9960938 4 L 6.9960938 2 L 3.2148438 2 z M 11 2 L 11 4 L 8 4 L 8 6 L 11 6 L 11 8 L 14 5 L 11 2 z M 2 8 L 2 14 L 8 14 L 8 8 L 2 8 z M 11.996094 9 L 11.996094 12 L 8.9960938 12 L 8.9960938 14 L 12.777344 14 C 13.447204 14 13.996094 13.4752 13.996094 12.8125 L 13.996094 9 L 11.996094 9 z"
     id="path5" />
</svg>

<svg width="16" height="16" version="1.1" viewBox="0 0 16 16" xmlns="http://www.w3.org/2000/svg">
<defs>
<style id="current-color-scheme" type="text/css">.ColorScheme-Text { color:#5c616c; } .ColorScheme-Highlight { color:#5294e2; }</style>
</defs>
<path class="ColorScheme-Text" d="m3.2148 2c-0.66986 0-1.2188 0.5248-1.2188 1.1875v3.8125h2v-3h3v-2h-3.7812zm7.7852 0v2h-3v2h3v2l3-3-3-3zm-9 6v6h6v-6h-6zm9.9961 1v3h-3v2h3.7813c0.66986 0 1.2188-0.5248 1.2188-1.1875v-3.8125h-2z" fill="#dedede" fill-opacity=".85098"/>
</svg>
